Obsidian-SemiLight/actions/16s/address-book-new.svg

<svg viewBox="0 0 16 16" xmlns="http://www.w3.org/2000/svg"><path d="m3 2v1 1h-1v2h1v4h-1v2h1v1.5.5h11v-1-10-1zm1 1h1v10h-1zm2 0h7v10h-7z" fill="#4d4d4d"/></svg>

<svg xmlns="http://www.w3.org/2000/svg" viewBox="0 0 16 16">
  <defs id="defs3051">
    <style type="text/css" id="current-color-scheme">
      .ColorScheme-Text {
        color:#4d4d4d;
      }
      </style>
  </defs>
 <path style="fill:currentColor;fill-opacity:1;stroke:none" 
       d="M 3 2 L 3 3 L 3 4 L 2 4 L 2 6 L 3 6 L 3 10 L 2 10 L 2 12 L 3 12 L 3 13.5 L 3 14 L 14 14 L 14 13 L 14 3 L 14 2 L 3 2 z M 4 3 L 5 3 L 5 13 L 4 13 L 4 3 z M 6 3 L 13 3 L 13 13 L 6 13 L 6 3 z "
     class="ColorScheme-Text"
     />
</svg>
